X:1
T:He’s blest, whose sins have pardon gained
T:He’s blest, whose sins have pardon gained (James William Windsor)
C:James William Windsor
Z:p23, A Collection of
Z:Sacred Music, ed.
Z:J. M. Coombs [jr.],
Z:London, (1830)
%%score [ 1 2 3 4 ]
L:1/8
M:3/2
K:Eb
V:1 treble nm="Soprano" snm="S."
V:2 treble nm="Alto" snm="A."
V:3 treble-8 transpose=-12 nm="Tenor" snm="T."
V:4 bass nm="Bass" snm="B."
V:1
"^Tenderly" E4 | G8 B4 | E8 e4 | (d4 c4) A4 | (A4 G4) B4 | E8 A4 | A8 G4 | (c4 F4) F4 | F8 E4 | %9
w: His|saints that|have per-|form’d _ his|laws _ Their|life in|tri- umph|shall _ em-|ploy; Let|
w: He’s|blest, whose|sins have|par- * don|gain’d, _ No|more in|judg- ment|to _ ap-|pear; Whose|
w: Thy|fa- vour,|Lord, in|all _ dis-|tress, _ My|tow’r of|re- fuge|I _ must|own; Thou|
 (G6 A2) B4 | E8 _d4 | (c4 d4) e4 | (e4 d4) e4 | (G4 c4) B4 | (A6 B2) G4 | (A6 G2) F4 | E8 |] %17
w: them, _ as|they a-|lone _ have|cause, _ In|grate- * ful|rap- * tures|shout _ for|joy.|
w: guilt _ re-|mis- sion|has _ ob|tain’d, _ And|whose _ re-|pen- * tance|is _ sin-|cere.|
w: shalt _ my|haugh- ty|foes _ sup-|press, _ And|me _ with|songs _ of|tri- * umph|crown.|
V:2
 B,4 | E8 F4 | E8 E4 | E8 E4 | E8 F4 | E8 E4 | (D4 E2 F2) E4 | E8 E4 | D8 B,4 | E8 B,4 | C8 E4 | %11
w: His|saints that|have per-|form’d his|laws Their|life in|tri- * * umph|shall em-|ploy; Let|them, as|they a-|
w: He’s|blest, whose|sins have|par- don|gain’d, No|more in|judg- * * ment|to ap-|pear; Whose|guilt re-|mis- sion|
w: Thy|fa- vour,|Lord, in|all dis-|tress, My|tow’r of|re- * * fuge|I must|own; Thou|shalt my|haugh- ty|
 (E4 F4) G4 | (G4 F4) E4 | E8 E4 | F8 E4 | (E4 C4) D4 | E8 |] %17
w: lone _ have|cause, _ In|grate- ful|rap- tures|shout _ for|joy.|
w: has _ ob|tain’d, _ And|whose re-|pen- tance|is _ sin-|cere.|
w: foes _ sup-|press, _ And|me with|songs of|tri- * umph|crown.|
V:3
 G4 | B8 B4 | G8 B4 | A8 (A2 c2) | (c4 B4) B4 | G8 E4 | (F4 B4) B4 | c8 =A4 | B8 G4 | B8 F4 | %10
w: His|saints that|have per-|form’d his _|laws _ Their|life in|tri- * umph|shall em-|ploy; Let|them, as|
w: He’s|blest, whose|sins have|par- don _|gain’d, _ No|more in|judg- * ment|to ap-|pear; Whose|guilt re-|
w: Thy|fa- vour,|Lord, in|all dis- *|tress, _ My|tow’r of|re- * fuge|I must|own; Thou|shalt my|
 G8 B4 | A8 c4 | B8 G4 | (c4 e4) B4 | (c4 B4) B4 | (c4 E4) (B2 A2) | G8 |] %17
w: they a-|lone have|cause, In|grate- * ful|rap- * tures|shout _ for _|joy.|
w: mis- sion|has ob|tain’d, And|whose _ re-|pen- * tance|is _ sin- *|cere.|
w: haugh- ty|foes sup-|press, And|me _ with|songs _ of|tri- * umph _|crown.|
V:4
 E,4 | E,8 D,4 | C,8 G,,4 | A,,8 C,4 | E,8 D,4 | C,8 C,4 | (B,,4 C,2 D,2) E,4 | A,8 F,4 | B,8 E,4 | %9
w: His|saints that|have per-|form’d his|laws Their|life in|tri- * * umph|shall em-|ploy; Let|
w: He’s|blest, whose|sins have|par- don|gain’d, No|more in|judg- * * ment|to ap-|pear; Whose|
w: Thy|fa- vour,|Lord, in|all dis-|tress, My|tow’r of|re- * * fuge|I must|own; Thou|
 E,8 D,4 | C,8 G,,4 | A,,8 =A,,4 | %12
w: them, as|they a-|lone have|
w: guilt re-|mis- sion|has ob|
w: shalt my|haugh- ty|foes sup-|
"^Notes:The Alto and Tenor parts are printed in the alto and tenor clefs respectively in the source.A fully written-out keyboard accompaniment in the source, which doubles the voice parts, has been omitted from thepresent edition.The first verse only of the text is underlaid in the source, although the title indicates 'Psalm 32 Verses 1, 7 and 11':further verses have been added editorially in accordance with this.The following notes are printed in the source as small minim grace-notes slurred to the following notes (which areprinted as semibreves), and have been expanded editorially: bar 4, beat 1, Soprano Ab and Tenor C; bar 12, beat 1,Soprano Eb and Alto G." B,,8 C,4 | %13
w: cause, In|
w: tain’d, And|
w: press, And|
 (C3 B, A,4) G,4 | (F,3 E, D,4) E,4 | A,,8 B,,4 | E,8 |] %17
w: grate- * * ful|rap- * * tures|shout for|joy.|
w: whose _ _ re-|pen- * * tance|is sin-|cere.|
w: me _ _ with|songs _ _ of|tri- umph|crown.|

